X:1
T:Title
%%score 1 { ( 2 4 ) | ( 3 5 ) }
L:1/8
Q:1/4=84
M:6/8
K:G
V:1 treble nm="Akkordion"
V:2 treble nm="Grand Piano"
V:4 treble 
V:3 treble 
V:5 treble 
V:1
 B2 B _B2 B | B3- B z B | G2 G ABc | B3- B z B | B2 B B2 B | ^c2 c d2 d | d2 ^c B2 _B | %7
w: Adam~Geibel * * *|||||||
[M:5/8] B-B- B3 |[M:2/4] z4 |[M:9/16] z9/2 |[M:2/4] z4 | z4 | z4 |[M:3/4] z6 | z6 |] %15
w: ||||||||
V:2
 B2 B _B2 B | [DGB]3- [DGB] z [DGB] | z3 .[FA]3 | [DGB]3- [DGB] z B | B2 B B2 B | %5
 ^c2 c [Fd]2 [Fd] | [Fd]2 [EG^c] [DFB]2 [^CF_B] |[M:5/8] [DFB]-[DFB]- [DFB]3 | %8
[M:2/4] [DFB][CFA] [B,=F^G][C^FA] |[M:9/16] [B,GB][Fc]/-[Fc]/ed3/2 |[M:2/4] GG [B,=FG][CEG] | %11
 [EAc] [DGB]3- | [DGB] [CFA]3- |[M:3/4] [CFA][B,G]- [B,G]4- | [B,G] z z2 z2 |] %15
V:3
 [G,DG]2 [G,DG] [G,^CG]2 [G,CG] | G,[K:bass]D,B,, .G,,2 G, | D,2 D, z GD, | %3
 G,,B,,D, .G,2[K:treble] [G,DG] | [G,B,D]2 [G,^CE] [F,DF]2 [F,DF] | %5
 [F,_B,F]2 [F,B,F] [B,,=B,]2 [B,,B,] | B,2 E, F,2 F, |[M:5/8] B,F,D, B,,2 |[M:2/4] B,,D, D,D, | %9
[M:9/16] D,[D,A,]/-[D,A,]/[K:treble][CDF][B,DG]3/2 |[M:2/4][K:bass] [E,B,][E,B,] D,C, | A,, D,3- | %12
 D, D,3- |[M:3/4] D,G,,- G,,4- | G,, z z2 z2 |] %15
V:4
 x6 | x6 | [B,DG]2 [B,DG] D-[DB][DAc] | x6 | x6 | x6 | x6 |[M:5/8] x5 |[M:2/4] x4 |[M:9/16] x9/2 | %10
[M:2/4] x4 | x4 | x4 |[M:3/4] x6 | x6 |] %15
V:5
 x6 | x[K:bass] x5 | z3 .D,3 | x5[K:treble] x | x6 | x6 | x6 |[M:5/8] x5 |[M:2/4] x4 | %9
[M:9/16] x2[K:treble] x5/2 |[M:2/4][K:bass] x4 | x4 | x4 |[M:3/4] x6 | x6 |] %15

